; generated by Slic3r 1.3.1-dev on 2019-01-30 at 17:25:06

; external perimeters extrusion width = 0.44mm (2.82mm^3/s)
; perimeters extrusion width = 0.48mm (3.77mm^3/s)
; infill extrusion width = 0.48mm (5.03mm^3/s)
; solid infill extrusion width = 0.48mm (4.40mm^3/s)
; top infill extrusion width = 0.48mm (3.14mm^3/s)

M107
M190 S70 ; set bed temperature and wait for it to be reached
M104 S220 ; set temperature
G28 ; home all axes
G1 Z5 F5000 ; lift nozzle

; Filament gcode

M109 S220 ; set temperature and wait for it to be reached
G21 ; set units to millimeters
G90 ; use absolute coordinates
M82 ; use absolute distances for extrusion
G92 E0
G92 E0
G1 E-10.00000 F9000.00000
G92 E0
G1 Z0.150 F3600.000
G1 X75.178 Y81.036 F3600.000
G1 E10.00000 F9000.00000
G1 F1500
G1 X75.358 Y80.893 E10.00754
G1 X77.430 Y79.592 E10.08809
G1 X78.813 Y79.035 E10.13716
G1 X79.224 Y78.901 E10.15137
G1 X80.443 Y78.575 E10.19292
G1 X82.097 Y78.318 E10.24802
G1 X83.031 Y78.249 E10.27883
G1 X83.662 Y78.231 E10.29963
G1 X116.844 Y78.231 E11.39182
G1 X117.595 Y78.256 E11.41655
G1 X118.379 Y78.317 E11.44245
G1 X120.071 Y78.586 E11.49883
G1 X121.312 Y78.927 E11.54119
G1 X121.671 Y79.047 E11.55366
G1 X123.495 Y79.845 E11.61919
G1 X125.170 Y80.971 E11.68563
G1 X125.348 Y81.116 E11.69319
G1 X127.374 Y83.277 E11.79069
G1 X127.483 Y83.430 E11.79687
G1 X129.244 Y87.330 E11.93772
G1 X129.281 Y87.486 E11.94301
G1 X129.570 Y90.000 E12.02630
G1 X129.570 Y110.000 E12.68461
G1 X129.281 Y112.514 E12.76790
G1 X129.244 Y112.670 E12.77318
G1 X127.483 Y116.570 E12.91404
G1 X127.375 Y116.723 E12.92021
G1 X125.348 Y118.884 E13.01773
G1 X125.170 Y119.029 E13.02529
G1 X123.495 Y120.154 E13.09171
G1 X121.671 Y120.953 E13.15724
G1 X120.385 Y121.339 E13.20143
G1 X120.071 Y121.414 E13.21208
G1 X118.379 Y121.683 E13.26846
G1 X117.491 Y121.750 E13.29776
G1 X116.844 Y121.769 E13.31909
G1 X83.662 Y121.769 E14.41128
G1 X82.924 Y121.745 E14.43558
G1 X82.097 Y121.682 E14.46288
G1 X80.443 Y121.425 E14.51799
G1 X79.223 Y121.098 E14.55955
G1 X78.813 Y120.965 E14.57375
G1 X77.432 Y120.409 E14.62277
G1 X75.358 Y119.107 E14.70336
G1 X75.179 Y118.964 E14.71090
G1 X73.125 Y116.824 E14.80853
G1 X73.014 Y116.672 E14.81475
G1 X71.193 Y112.728 E14.95773
G1 X71.156 Y112.571 E14.96304
G1 X70.853 Y110.000 E15.04824
G1 X70.853 Y90.000 E15.70656
G1 X71.156 Y87.429 E15.79177
G1 X71.193 Y87.273 E15.79706
G1 X73.014 Y83.328 E15.94005
G1 X73.125 Y83.176 E15.94627
G1 X75.137 Y81.079 E16.04192
G1 X75.507 Y81.449 F3600.000
G1 F1500
G1 X75.686 Y81.306 E16.04946
G1 X77.660 Y80.067 E16.12617
G1 X78.977 Y79.537 E16.17290
G1 X79.387 Y79.403 E16.18711
G1 X80.563 Y79.089 E16.22718
G1 X82.139 Y78.844 E16.27965
G1 X83.061 Y78.776 E16.31009
G1 X83.662 Y78.759 E16.32990
G1 X116.844 Y78.759 E17.42208
G1 X117.564 Y78.783 E17.44580
G1 X118.337 Y78.843 E17.47132
G1 X119.948 Y79.099 E17.52501
G1 X121.144 Y79.427 E17.56585
G1 X121.504 Y79.547 E17.57833
G1 X123.240 Y80.308 E17.64073
G1 X124.837 Y81.381 E17.70404
G1 X125.015 Y81.526 E17.71160
G1 X126.945 Y83.583 E17.80445
G1 X127.053 Y83.736 E17.81062
G1 X128.730 Y87.450 E17.94475
G1 X128.767 Y87.606 E17.95004
G1 X129.043 Y90.000 E18.02935
G1 X129.043 Y110.000 E18.68766
G1 X128.767 Y112.394 E18.76697
G1 X128.730 Y112.550 E18.77226
G1 X127.053 Y116.264 E18.90639
G1 X126.945 Y116.417 E18.91256
G1 X125.015 Y118.475 E19.00542
G1 X124.837 Y118.620 E19.01298
G1 X123.241 Y119.692 E19.07628
G1 X121.504 Y120.452 E19.13868
G1 X120.262 Y120.825 E19.18135
G1 X119.948 Y120.901 E19.19200
G1 X118.337 Y121.157 E19.24570
G1 X117.460 Y121.223 E19.27462
G1 X116.844 Y121.241 E19.29493
G1 X83.662 Y121.241 E20.38712
G1 X82.955 Y121.218 E20.41042
G1 X82.139 Y121.156 E20.43736
G1 X80.563 Y120.911 E20.48984
G1 X79.387 Y120.597 E20.52991
G1 X78.977 Y120.463 E20.54412
G1 X77.661 Y119.933 E20.59080
G1 X75.686 Y118.694 E20.66755
G1 X75.507 Y118.551 E20.67509
G1 X73.551 Y116.513 E20.76806
G1 X73.440 Y116.361 E20.77428
G1 X71.706 Y112.605 E20.91043
G1 X71.669 Y112.448 E20.91574
G1 X71.380 Y110.000 E20.99688
G1 X71.380 Y90.000 E21.65519
G1 X71.669 Y87.552 E21.73633
G1 X71.706 Y87.395 E21.74163
G1 X73.440 Y83.639 E21.87779
G1 X73.551 Y83.487 E21.88401
G1 X75.465 Y81.492 E21.97500
G1 E11.97500 F9000.00000
G92 E0
G1 X79.613 Y86.381 F3600.000
G1 E10.00000 F9000.00000
G1 F1500
G1 X80.285 Y85.822 E10.03028
G1 X81.174 Y85.355 E10.06506
G1 X82.385 Y85.033 E10.10851
G1 X83.093 Y84.918 E10.13334
G1 X83.472 Y84.888 E10.14652
G1 X117.039 Y84.888 E11.30946
G1 X117.427 Y84.920 E11.32297
G1 X118.132 Y85.037 E11.34774
G1 X119.317 Y85.359 E11.39027
G1 X120.213 Y85.840 E11.42552
G1 X121.129 Y86.622 E11.46724
G1 X121.814 Y87.590 E11.50832
G1 X122.243 Y88.707 E11.54979
G1 X122.402 Y89.564 E11.57998
G1 X122.402 Y110.436 E12.30311
G1 X122.243 Y111.293 E12.33331
G1 X121.814 Y112.410 E12.37476
G1 X121.129 Y113.378 E12.41585
G1 X120.213 Y114.160 E12.45756
G1 X119.317 Y114.641 E12.49281
G1 X118.132 Y114.963 E12.53535
G1 X117.427 Y115.080 E12.56011
G1 X117.039 Y115.112 E12.57362
G1 X83.472 Y115.112 E13.73656
G1 X83.093 Y115.082 E13.74975
G1 X82.386 Y114.967 E13.77457
G1 X81.174 Y114.645 E13.81802
G1 X80.285 Y114.178 E13.85281
G1 X79.371 Y113.417 E13.89399
G1 X78.671 Y112.449 E13.93539
G1 X78.227 Y111.322 E13.97736
G1 X78.061 Y110.446 E14.00825
G1 X78.061 Y89.554 E14.73207
G1 X78.227 Y88.678 E14.76296
G1 X78.671 Y87.551 E14.80494
G1 X79.371 Y86.583 E14.84633
G1 X79.567 Y86.419 E14.85515
G1 X79.968 Y86.808 F3600.000
G1 F1500
G1 X80.595 Y86.287 E14.88339
G1 X81.380 Y85.875 E14.91410
G1 X82.490 Y85.578 E14.95390
G1 X83.160 Y85.470 E14.97742
G1 X83.494 Y85.443 E14.98905
G1 X117.016 Y85.443 E16.15043
G1 X117.359 Y85.471 E16.16236
G1 X118.026 Y85.582 E16.18578
G1 X119.107 Y85.877 E16.22460
G1 X119.898 Y86.302 E16.25572
G1 X120.716 Y86.999 E16.29296
G1 X121.320 Y87.854 E16.32923
G1 X121.706 Y88.859 E16.36652
G1 X121.847 Y89.615 E16.39318
G1 X121.847 Y110.385 E17.11276
G1 X121.706 Y111.142 E17.13943
G1 X121.320 Y112.146 E17.17670
G1 X120.716 Y113.001 E17.21297
G1 X119.898 Y113.698 E17.25021
G1 X119.107 Y114.123 E17.28133
G1 X118.026 Y114.418 E17.32015
G1 X117.359 Y114.529 E17.34358
G1 X117.016 Y114.557 E17.35550
G1 X83.494 Y114.557 E18.51688
G1 X83.160 Y114.530 E18.52852
G1 X82.490 Y114.422 E18.55203
G1 X81.380 Y114.125 E18.59183
G1 X80.595 Y113.713 E18.62254
G1 X79.780 Y113.035 E18.65926
G1 X79.162 Y112.180 E18.69580
G1 X78.763 Y111.167 E18.73354
G1 X78.617 Y110.394 E18.76081
G1 X78.617 Y89.606 E19.48101
G1 X78.763 Y88.833 E19.50828
G1 X79.163 Y87.819 E19.54602
G1 X79.780 Y86.965 E19.58256
G1 X79.922 Y86.846 E19.58896
G1 X80.324 Y87.235 F3600.000
G1 F1500
G1 X80.905 Y86.751 E19.61516
G1 X81.586 Y86.394 E19.64179
G1 X82.594 Y86.124 E19.67794
G1 X83.226 Y86.022 E19.70015
G1 X83.517 Y85.999 E19.71024
G1 X116.993 Y85.999 E20.87005
G1 X117.290 Y86.023 E20.88039
G1 X117.919 Y86.127 E20.90248
G1 X118.897 Y86.395 E20.93758
G1 X119.583 Y86.763 E20.96457
G1 X120.303 Y87.377 E20.99734
G1 X120.827 Y88.118 E21.02879
G1 X121.169 Y89.010 E21.06190
G1 X121.291 Y89.666 E21.08502
G1 X121.291 Y110.334 E21.80107
G1 X121.169 Y110.990 E21.82419
G1 X120.827 Y111.882 E21.85729
G1 X120.302 Y112.623 E21.88874
G1 X119.583 Y113.237 E21.92151
G1 X118.897 Y113.605 E21.94850
G1 X117.919 Y113.873 E21.98360
G1 X117.290 Y113.977 E22.00569
G1 X116.993 Y114.001 E22.01603
G1 X83.517 Y114.001 E23.17585
G1 X83.226 Y113.978 E23.18594
G1 X82.594 Y113.876 E23.20814
G1 X81.586 Y113.606 E23.24429
G1 X80.905 Y113.249 E23.27092
G1 X80.190 Y112.653 E23.30318
G1 X79.654 Y111.912 E23.33487
G1 X79.299 Y111.012 E23.36837
G1 X79.172 Y110.341 E23.39202
G1 X79.172 Y89.659 E24.10860
G1 X79.299 Y88.988 E24.13225
G1 X79.654 Y88.088 E24.16575
G1 X80.190 Y87.347 E24.19744
G1 X80.278 Y87.273 E24.20142
G1 X80.679 Y87.662 F3600.000
G1 F1500
G1 X81.215 Y87.216 E24.22558
G1 X81.792 Y86.913 E24.24814
G1 X82.698 Y86.670 E24.28063
G1 X83.293 Y86.574 E24.30153
G1 X83.539 Y86.554 E24.31007
G1 X116.970 Y86.554 E25.46833
G1 X117.222 Y86.575 E25.47708
G1 X117.813 Y86.673 E25.49783
G1 X118.686 Y86.913 E25.52922
G1 X119.268 Y87.224 E25.55207
G1 X119.889 Y87.755 E25.58037
G1 X120.333 Y88.382 E25.60701
G1 X120.633 Y89.162 E25.63594
G1 X120.736 Y89.717 E25.65552
G1 X120.736 Y110.283 E26.36802
G1 X120.632 Y110.839 E26.38761
G1 X120.333 Y111.618 E26.41653
G1 X119.889 Y112.245 E26.44317
G1 X119.268 Y112.776 E26.47147
G1 X118.686 Y113.087 E26.49432
G1 X117.813 Y113.327 E26.52571
G1 X117.222 Y113.425 E26.54645
G1 X116.970 Y113.446 E26.55521
G1 X83.539 Y113.446 E27.71346
G1 X83.293 Y113.426 E27.72201
G1 X82.698 Y113.330 E27.74291
G1 X81.792 Y113.087 E27.77540
G1 X81.215 Y112.784 E27.79796
G1 X80.599 Y112.271 E27.82575
G1 X80.145 Y111.643 E27.85259
G1 X79.836 Y110.857 E27.88186
G1 X79.728 Y110.289 E27.90189
G1 X79.728 Y89.711 E28.61484
G1 X79.836 Y89.143 E28.63487
G1 X80.145 Y88.357 E28.66414
G1 X80.633 Y87.700 E28.69248
G1 X81.035 Y88.089 F3600.000
G1 F1500
G1 X81.526 Y87.680 E28.71461
G1 X81.998 Y87.433 E28.73309
G1 X82.802 Y87.216 E28.76193
G1 X83.561 Y87.110 E28.78850
G1 X116.947 Y87.110 E29.94519
G1 X117.706 Y87.218 E29.97175
G1 X118.476 Y87.430 E29.99942
G1 X118.952 Y87.686 E30.01815
G1 X119.476 Y88.132 E30.04197
G1 X119.839 Y88.646 E30.06380
G1 X120.096 Y89.313 E30.08855
G1 X120.180 Y89.768 E30.10459
G1 X120.180 Y110.232 E30.81355
G1 X120.096 Y110.687 E30.82960
G1 X119.839 Y111.354 E30.85434
G1 X119.476 Y111.868 E30.87617
G1 X118.953 Y112.314 E30.89999
G1 X118.476 Y112.570 E30.91872
G1 X117.706 Y112.782 E30.94639
G1 X116.947 Y112.890 E30.97295
G1 X83.561 Y112.890 E32.12964
G1 X82.802 Y112.784 E32.15621
G1 X81.998 Y112.567 E32.18505
G1 X81.526 Y112.320 E32.20353
G1 X81.008 Y111.889 E32.22686
G1 X80.636 Y111.374 E32.24885
G1 X80.372 Y110.702 E32.27388
G1 X80.283 Y110.237 E32.29029
G1 X80.283 Y89.763 E32.99962
G1 X80.372 Y89.298 E33.01603
G1 X80.636 Y88.626 E33.04106
G1 X80.993 Y88.132 E33.06218
G1 X81.417 Y88.493 F3600.000
G1 F1500
G1 X81.836 Y88.145 E33.08104
G1 X82.204 Y87.952 E33.09545
G1 X82.906 Y87.762 E33.12064
G1 X83.584 Y87.665 E33.14436
G1 X116.924 Y87.665 E34.29948
G1 X117.709 Y87.789 E34.32700
G1 X118.266 Y87.948 E34.34707
G1 X118.637 Y88.147 E34.36167
G1 X119.062 Y88.510 E34.38102
G1 X119.346 Y88.910 E34.39803
G1 X119.559 Y89.465 E34.41860
G1 X119.624 Y89.820 E34.43110
G1 X119.624 Y110.181 E35.13653
G1 X119.559 Y110.535 E35.14904
G1 X119.346 Y111.090 E35.16960
G1 X119.062 Y111.490 E35.18661
G1 X118.637 Y111.853 E35.20596
G1 X118.266 Y112.052 E35.22056
G1 X117.600 Y112.236 E35.24452
G1 X116.924 Y112.335 E35.26815
G1 X83.584 Y112.335 E36.42328
G1 X82.799 Y112.214 E36.45079
G1 X82.204 Y112.048 E36.47219
G1 X81.836 Y111.855 E36.48659
G1 X81.417 Y111.507 E36.50545
G1 X81.128 Y111.106 E36.52259
G1 X80.908 Y110.547 E36.54338
G1 X80.839 Y110.185 E36.55617
G1 X80.839 Y89.815 E37.26189
G1 X80.908 Y89.453 E37.27468
G1 X81.128 Y88.894 E37.29547
G1 X81.382 Y88.542 E37.31053
G1 X81.827 Y88.876 F3600.000
G1 F1500
G1 X82.146 Y88.610 E37.32493
G1 X82.410 Y88.471 E37.33526
G1 X83.010 Y88.308 E37.35680
G1 X83.606 Y88.221 E37.37766
G1 X116.902 Y88.221 E38.53122
G1 X117.571 Y88.327 E38.55472
G1 X118.056 Y88.466 E38.57218
G1 X118.322 Y88.608 E38.58265
G1 X118.649 Y88.887 E38.59753
G1 X118.852 Y89.175 E38.60972
G1 X119.022 Y89.616 E38.62611
G1 X119.069 Y89.871 E38.63508
G1 X119.069 Y110.129 E39.33696
G1 X119.022 Y110.384 E39.34593
G1 X118.852 Y110.825 E39.36232
G1 X118.649 Y111.113 E39.37451
G1 X118.322 Y111.392 E39.38939
G1 X118.056 Y111.534 E39.39985
G1 X117.493 Y111.691 E39.42010
G1 X116.902 Y111.779 E39.44081
G1 X83.606 Y111.779 E40.59438
G1 X82.933 Y111.675 E40.61796
G1 X82.410 Y111.529 E40.63678
G1 X82.146 Y111.390 E40.64711
G1 X81.827 Y111.124 E40.66151
G1 X81.619 Y110.837 E40.67380
G1 X81.444 Y110.392 E40.69035
G1 X81.394 Y110.132 E40.69952
G1 X81.394 Y89.868 E41.40161
G1 X81.444 Y89.608 E41.41078
G1 X81.619 Y89.163 E41.42734
G1 X81.791 Y88.924 E41.43755
G1 X82.236 Y89.258 F3600.000
G1 F1500
G1 X82.456 Y89.074 E41.44749
G1 X82.616 Y88.990 E41.45373
G1 X83.114 Y88.854 E41.47162
G1 X83.628 Y88.776 E41.48964
G1 X116.879 Y88.776 E42.64164
G1 X117.434 Y88.866 E42.66112
G1 X117.846 Y88.983 E42.67596
G1 X118.007 Y89.070 E42.68229
G1 X118.235 Y89.265 E42.69270
G1 X118.358 Y89.439 E42.70008
G1 X118.485 Y89.768 E42.71229
G1 X118.513 Y89.922 E42.71772
G1 X118.513 Y110.078 E43.41606
G1 X118.485 Y110.232 E43.42149
G1 X118.358 Y110.561 E43.43370
G1 X118.235 Y110.735 E43.44108
G1 X118.007 Y110.930 E43.45149
G1 X117.846 Y111.017 E43.45782
G1 X117.386 Y111.145 E43.47435
G1 X116.879 Y111.224 E43.49215
G1 X83.628 Y111.224 E44.64414
G1 X83.068 Y111.136 E44.66380
G1 X82.616 Y111.010 E44.68005
G1 X82.456 Y110.926 E44.68630
G1 X82.236 Y110.742 E44.69623
G1 X82.110 Y110.568 E44.70367
G1 X81.980 Y110.237 E44.71599
G1 X81.950 Y110.080 E44.72154
G1 X81.950 Y89.920 E45.42001
G1 X81.980 Y89.763 E45.42556
G1 X82.110 Y89.432 E45.43788
G1 X82.201 Y89.306 E45.44324
G1 E35.44324 F9000.00000
G92 E0
G1 X82.601 Y110.300 F3600.000
G1 E10.00000 F9000.00000
G1 F1500
G1 X82.506 Y110.028 E10.00998
G1 X82.506 Y89.972 E10.70483
G1 X82.601 Y89.700 E10.71482
G1 X82.645 Y89.640 E10.71740
G1 X82.767 Y89.539 E10.72288
G1 X83.202 Y89.404 E10.73867
G1 X83.650 Y89.332 E10.75441
G1 X116.856 Y89.332 E11.90484
G1 X117.280 Y89.400 E11.91972
G1 X117.636 Y89.501 E11.93253
G1 X117.822 Y89.642 E11.94064
G1 X117.865 Y89.703 E11.94320
G1 X117.958 Y89.973 E11.95310
G1 X117.958 Y110.027 E12.64790
G1 X117.865 Y110.297 E12.65779
G1 X117.822 Y110.358 E12.66036
G1 X117.692 Y110.469 E12.66630
G1 X117.296 Y110.596 E12.68068
G1 X116.856 Y110.668 E12.69614
G1 X83.650 Y110.668 E13.84658
G1 X83.218 Y110.600 E13.86174
G1 X82.822 Y110.490 E13.87598
G1 X82.637 Y110.348 E13.88408
G1 E3.88408 F9000.00000
G92 E0
G1 X117.442 Y110.018 F3600.000
G1 E10.00000 F9000.00000
G1 F1500
G1 X117.175 Y110.094 E10.00707
G1 X116.826 Y110.152 E10.01606
G1 X83.680 Y110.152 E10.85903
G1 X83.321 Y110.094 E10.86828
G1 X83.022 Y110.010 E10.87618
G1 X83.022 Y89.990 E11.38535
G1 X83.321 Y89.906 E11.39325
G1 X83.680 Y89.848 E11.40250
G1 X116.826 Y89.848 E12.24546
G1 X117.175 Y89.906 E12.25446
G1 X117.442 Y89.982 E12.26153
G1 X117.442 Y109.958 E12.76954
G1 X117.179 Y109.927 F3600.000
G1 X116.974 Y109.653 F3600.000
G1 F1500
G1 X116.787 Y109.684 E12.77577
G1 X83.718 Y109.684 E13.86428
G1 X83.489 Y109.647 E13.87189
G1 X83.489 Y90.353 E14.50697
G1 X83.718 Y90.316 E14.51458
G1 X116.787 Y90.316 E15.60309
G1 X116.974 Y90.347 E15.60932
G1 X116.974 Y109.593 E16.24282
G1 X116.446 Y109.156 F3600.000
G1 F1500
G1 X84.017 Y109.156 E17.31024
G1 X84.017 Y90.844 E17.91301
G1 X116.446 Y90.844 E18.98043
G1 X116.446 Y109.096 E19.58123
G1 E9.58123 F9000.00000
G92 E0
G1 X92.521 Y99.348 F3600.000
G1 E10.00000 F9000.00000
G1 F1500
G1 X107.942 Y99.348 E10.51138
G1 X107.942 Y100.652 E10.55464
G1 X92.521 Y100.652 E11.06601
G1 X92.521 Y99.408 E11.10728
G1 X91.990 Y98.816 F3600.000
G1 F1500
G1 X108.474 Y98.816 E11.65393
G1 X108.474 Y101.184 E11.73245
G1 X91.990 Y101.184 E12.27910
G1 X91.990 Y98.876 E12.35563
G1 X91.458 Y98.284 F3600.000
G1 F1500
G1 X109.006 Y98.284 E12.93754
G1 X109.006 Y101.716 E13.05134
G1 X91.458 Y101.716 E13.63325
G1 X91.458 Y98.344 E13.74505
G1 X90.926 Y97.752 F3600.000
G1 F1500
G1 X109.537 Y97.752 E14.36223
G1 X109.537 Y102.248 E14.51129
G1 X90.926 Y102.248 E15.12847
G1 X90.926 Y97.812 E15.27554
G1 X90.394 Y97.221 F3600.000
G1 F1500
G1 X110.069 Y97.221 E15.92799
G1 X110.069 Y102.779 E16.11232
G1 X90.394 Y102.779 E16.76476
G1 X90.394 Y97.281 E16.94710
G1 X89.863 Y96.689 F3600.000
G1 F1500
G1 X110.601 Y96.689 E17.63481
G1 X110.601 Y103.311 E17.85441
