; generated by Slic3r 1.3.0-dev on 2018-05-04 at 19:08:48

; external perimeters extrusion width = 0.40mm (1.30mm^3/s)
; perimeters extrusion width = 0.56mm (2.51mm^3/s)
; infill extrusion width = 0.56mm (3.77mm^3/s)
; solid infill extrusion width = 0.56mm (3.14mm^3/s)
; top infill extrusion width = 0.56mm (2.51mm^3/s)


; Filament gcode

M109 S200 ; set temperature and wait for it to be reached
G21 ; set units to millimeters
G90 ; use absolute coordinates
M82 ; use absolute distances for extrusion
G92 E0
G1 E-5.00000 F7200.00000
G92 E0
G1 Z8.350 F3000.000
G1 X73.752 Y119.263 F3000.000
G1 X73.712 Y98.112 F3000.000
G1 X74.973 Y95.585 F3000.000
G1 X75.713 Y94.844 F3000.000
G1 X75.707 Y85.380 F3000.000
G1 X74.636 Y84.310 F3000.000
G1 X73.541 Y81.935 F3000.000
G1 X73.757 Y79.163 F3000.000
G1 X73.718 Y73.060 F3000.000
G1 X49.826 Y73.133 F3000.000
G1 X36.605 Y67.236 F3000.000
G1 E5.00000 F7200.00000
G1 F1200
G1 X36.605 Y24.982 E7.20757
G1 X33.355 Y24.982 E7.37737
G1 X33.355 Y24.240 E7.41611
G1 X35.590 Y24.248 E7.53285
G1 X35.927 Y24.275 E7.55053
G1 X36.365 Y24.380 E7.57405
G1 X36.781 Y24.552 E7.59757
G1 X37.165 Y24.787 E7.62110
G1 X37.507 Y25.080 E7.64462
G1 X37.799 Y25.422 E7.66814
G1 X38.035 Y25.806 E7.69167
G1 X38.207 Y26.222 E7.71519
G1 X38.312 Y26.660 E7.73871
G1 X38.351 Y27.153 E7.76456
G1 X38.351 Y66.065 E9.79748
G1 X38.312 Y66.558 E9.82333
G1 X38.207 Y66.996 E9.84685
G1 X38.035 Y67.412 E9.87037
G1 X37.799 Y67.795 E9.89390
G1 X37.507 Y68.138 E9.91742
G1 X37.165 Y68.430 E9.94094
G1 X36.781 Y68.665 E9.96447
G1 X36.365 Y68.838 E9.98799
G1 X35.927 Y68.943 E10.01151
G1 X35.434 Y68.982 E10.03736
G1 X34.067 Y68.982 E10.10879
G1 X34.067 Y67.236 E10.19999
G1 X36.545 Y67.236 E10.32949
G1 X36.103 Y66.733 F3000.000
G1 F1200
G1 X36.103 Y25.484 E12.48454
G1 X32.853 Y25.484 E12.65434
G1 X32.853 Y23.736 E12.74570
G1 X35.610 Y23.746 E12.88977
G1 X36.006 Y23.777 E12.91050
G1 X36.521 Y23.900 E12.93816
G1 X37.010 Y24.103 E12.96582
G1 X37.461 Y24.380 E12.99347
G1 X37.863 Y24.723 E13.02113
G1 X38.207 Y25.126 E13.04879
G1 X38.484 Y25.577 E13.07645
G1 X38.686 Y26.066 E13.10410
G1 X38.810 Y26.581 E13.13176
G1 X38.854 Y27.133 E13.16070
G1 X38.854 Y66.084 E15.19569
G1 X38.810 Y66.637 E15.22463
G1 X38.686 Y67.151 E15.25229
G1 X38.484 Y67.640 E15.27995
G1 X38.207 Y68.092 E15.30760
G1 X37.863 Y68.494 E15.33526
G1 X37.461 Y68.838 E15.36292
G1 X37.010 Y69.115 E15.39058
G1 X36.521 Y69.317 E15.41823
G1 X36.006 Y69.441 E15.44589
G1 X35.453 Y69.484 E15.47483
G1 X33.564 Y69.484 E15.57356
G1 X33.564 Y66.733 E15.71728
G1 X36.043 Y66.733 E15.84678
G1 X35.678 Y66.309 F3000.000
G1 F900
G1 X35.678 Y25.909 E17.30113
G1 X32.428 Y25.909 E17.41813
G1 X32.428 Y23.310 E17.51170
G1 X35.628 Y23.321 E17.62688
G1 X36.072 Y23.356 E17.64294
G1 X36.652 Y23.495 E17.66441
G1 X37.203 Y23.724 E17.68587
G1 X37.711 Y24.035 E17.70733
G1 X38.165 Y24.422 E17.72879
G1 X38.552 Y24.876 E17.75025
G1 X38.863 Y25.384 E17.77172
G1 X39.091 Y25.935 E17.79318
G1 X39.231 Y26.514 E17.81464
G1 X39.278 Y27.117 E17.83639
G1 X39.278 Y66.101 E19.23978
G1 X39.231 Y66.703 E19.26152
G1 X39.091 Y67.283 E19.28298
G1 X38.863 Y67.834 E19.30445
G1 X38.552 Y68.342 E19.32591
G1 X38.165 Y68.795 E19.34737
G1 X37.711 Y69.183 E19.36883
G1 X37.203 Y69.494 E19.39030
G1 X36.652 Y69.722 E19.41176
G1 X36.072 Y69.861 E19.43322
G1 X35.470 Y69.909 E19.45497
G1 X33.139 Y69.909 E19.53887
G1 X33.139 Y66.309 E19.66847
G1 X35.618 Y66.309 E19.75770
G1 X36.058 Y66.183 F3000.000
G1 X34.303 Y68.212 F3000.000
G1 F1500
G1 X34.836 Y68.746 E19.79722
G1 X35.549 Y68.746 E19.83456
G1 X34.303 Y67.499 E19.92690
G1 X34.303 Y67.472 E19.92833
G1 X34.988 Y67.472 E19.96425
G1 X36.206 Y68.690 E20.05446
G1 X36.475 Y68.625 E20.06900
G1 X36.743 Y68.514 E20.08417
G1 X35.701 Y67.472 E20.16137
G1 X36.414 Y67.472 E20.19872
G1 X37.186 Y68.245 E20.25597
G1 X37.417 Y68.048 E20.27185
G1 X37.549 Y67.894 E20.28246
G1 X36.841 Y67.187 E20.33486
G1 X36.841 Y66.474 E20.37221
G1 X37.839 Y67.471 E20.44611
G1 X37.994 Y67.106 E20.46688
G1 X38.031 Y66.951 E20.47525
G1 X36.841 Y65.761 E20.56343
G1 X36.841 Y65.048 E20.60078
G1 X38.115 Y66.311 E20.69476
G1 X38.115 Y65.609 E20.73158
G1 X36.841 Y64.335 E20.82594
G1 X36.841 Y63.622 E20.86329
G1 X38.115 Y64.896 E20.95765
G1 X38.115 Y64.183 E20.99500
G1 X36.841 Y62.909 E21.08936
G1 X36.841 Y62.197 E21.12671
G1 X38.115 Y63.470 E21.22108
G1 X38.115 Y62.757 E21.25842
G1 X36.841 Y61.484 E21.35279
G1 X36.841 Y60.771 E21.39014
G1 X38.115 Y62.044 E21.48450
G1 X38.115 Y61.331 E21.52185
G1 X36.841 Y60.058 E21.61621
G1 X36.841 Y59.345 E21.65356
G1 X38.115 Y60.619 E21.74792
G1 X38.115 Y59.906 E21.78527
G1 X36.841 Y58.632 E21.87963
G1 X36.841 Y57.919 E21.91698
G1 X38.115 Y59.193 E22.01134
G1 X38.115 Y58.480 E22.04869
G1 X36.841 Y57.206 E22.14305
G1 X36.841 Y56.494 E22.18040
G1 X38.115 Y57.767 E22.27476
G1 X38.115 Y57.054 E22.31211
G1 X36.841 Y55.781 E22.40648
G1 X36.841 Y55.068 E22.44382
G1 X38.115 Y56.341 E22.53819
G1 X38.115 Y55.629 E22.57554
G1 X36.841 Y54.355 E22.66990
G1 X36.841 Y53.642 E22.70725
G1 X38.115 Y54.916 E22.80161
G1 X38.115 Y54.203 E22.83896
G1 X36.841 Y52.929 E22.93332
G1 X36.841 Y52.216 E22.97067
G1 X38.115 Y53.490 E23.06503
G1 X38.115 Y52.777 E23.10238
G1 X36.841 Y51.504 E23.19674
G1 X36.841 Y50.791 E23.23409
G1 X38.115 Y52.064 E23.32845
G1 X38.115 Y51.351 E23.36580
G1 X36.841 Y50.078 E23.46016
G1 X36.841 Y49.365 E23.49751
G1 X38.115 Y50.638 E23.59188
G1 X38.115 Y49.926 E23.62923
G1 X36.841 Y48.652 E23.72359
G1 X36.841 Y47.939 E23.76094
G1 X38.115 Y49.213 E23.85530
G1 X38.115 Y48.500 E23.89265
G1 X36.841 Y47.226 E23.98701
G1 X36.841 Y46.513 E24.02436
G1 X38.115 Y47.787 E24.11872
G1 X38.115 Y47.074 E24.15607
G1 X36.841 Y45.801 E24.25043
G1 X36.841 Y45.088 E24.28778
G1 X38.115 Y46.361 E24.38214
G1 X38.115 Y45.648 E24.41949
G1 X36.841 Y44.375 E24.51385
G1 X36.841 Y43.662 E24.55120
G1 X38.115 Y44.936 E24.64556
G1 X38.115 Y44.223 E24.68291
G1 X36.841 Y42.949 E24.77728
G1 X36.841 Y42.236 E24.81462
G1 X38.115 Y43.510 E24.90899
G1 X38.115 Y42.797 E24.94633
G1 X36.841 Y41.523 E25.04070
G1 X36.841 Y40.810 E25.07805
G1 X38.115 Y42.084 E25.17241
G1 X38.115 Y41.371 E25.20976
G1 X36.841 Y40.098 E25.30412
G1 X36.841 Y39.385 E25.34147
G1 X38.115 Y40.658 E25.43583
G1 X38.115 Y39.945 E25.47318
G1 X36.841 Y38.672 E25.56754
G1 X36.841 Y37.959 E25.60489
G1 X38.115 Y39.233 E25.69925
G1 X38.115 Y38.520 E25.73660
G1 X36.841 Y37.246 E25.83096
G1 X36.841 Y36.533 E25.86831
G1 X38.115 Y37.807 E25.96267
G1 X38.115 Y37.094 E26.00002
G1 X36.841 Y35.820 E26.09438
G1 X36.841 Y35.108 E26.13173
G1 X38.115 Y36.381 E26.22610
G1 X38.115 Y35.668 E26.26344
G1 X36.841 Y34.395 E26.35781
G1 X36.841 Y33.682 E26.39516
G1 X38.115 Y34.955 E26.48952
G1 X38.115 Y34.242 E26.52687
G1 X36.841 Y32.969 E26.62123
G1 X36.841 Y32.256 E26.65858
G1 X38.115 Y33.530 E26.75294
G1 X38.115 Y32.817 E26.79029
G1 X36.841 Y31.543 E26.88465
G1 X36.841 Y30.830 E26.92200
G1 X38.115 Y32.104 E27.01636
G1 X38.115 Y31.391 E27.05371
G1 X36.841 Y30.117 E27.14807
G1 X36.841 Y29.405 E27.18542
G1 X38.115 Y30.678 E27.27978
G1 X38.115 Y29.965 E27.31713
G1 X36.841 Y28.692 E27.41149
G1 X36.841 Y27.979 E27.44884
G1 X38.115 Y29.252 E27.54320
G1 X38.115 Y28.540 E27.58055
G1 X36.841 Y27.266 E27.67492
G1 X36.841 Y26.553 E27.71226
G1 X38.115 Y27.827 E27.80663
G1 X38.115 Y27.439 E27.82691
G1 X38.087 Y27.086 E27.84549
G1 X36.841 Y25.840 E27.93779
G1 X36.841 Y25.133 E27.97482
G1 X37.418 Y25.704 E28.01732
G1 X36.421 Y24.692 F3000.000
G1 F1500
G1 X35.871 Y24.627 E28.02346
G1 F1500
G1 X33.607 Y24.611 E28.06517
G1 E23.06517 F7200.00000
G92 E0
G1 X17.851 Y24.982 F3000.000
G1 E5.00000 F7200.00000
G1 F1200
G1 X17.851 Y44.982 E6.04490
G1 X16.105 Y44.982 E6.13610
G1 X16.105 Y27.153 E7.06755
G1 X16.144 Y26.660 E7.09340
G1 X16.249 Y26.222 E7.11692
G1 X16.421 Y25.806 E7.14044
G1 X16.657 Y25.422 E7.16397
G1 X16.949 Y25.080 E7.18749
G1 X17.291 Y24.787 E7.21101
G1 X17.675 Y24.552 E7.23454
G1 X18.091 Y24.380 E7.25806
G1 X18.529 Y24.275 E7.28158
G1 X19.022 Y24.236 E7.30743
G1 X21.101 Y24.236 E7.41602
G1 X21.101 Y24.982 E7.45498
G1 X17.911 Y24.982 E7.62164
G1 X18.354 Y25.484 F3000.000
G1 F1200
G1 X18.354 Y45.484 E8.66654
G1 X15.603 Y45.484 E8.81027
G1 X15.603 Y27.133 E9.76901
G1 X15.646 Y26.581 E9.79795
G1 X15.770 Y26.066 E9.82561
G1 X15.972 Y25.577 E9.85327
G1 X16.249 Y25.126 E9.88093
G1 X16.593 Y24.723 E9.90858
G1 X16.995 Y24.380 E9.93624
G1 X17.446 Y24.103 E9.96390
G1 X17.936 Y23.900 E9.99155
G1 X18.450 Y23.777 E10.01921
G1 X19.003 Y23.733 E10.04815
G1 X21.604 Y23.733 E10.18404
G1 X21.604 Y25.484 E10.27552
G1 X18.414 Y25.484 E10.44218
G1 X18.778 Y25.909 F3000.000
G1 F900
G1 X18.778 Y45.909 E11.16216
G1 X15.178 Y45.909 E11.29176
G1 X15.178 Y27.117 E11.96825
G1 X15.225 Y26.514 E11.99000
G1 X15.365 Y25.935 E12.01146
G1 X15.593 Y25.384 E12.03292
G1 X15.904 Y24.876 E12.05438
G1 X16.291 Y24.422 E12.07585
G1 X16.745 Y24.035 E12.09731
G1 X17.253 Y23.724 E12.11877
G1 X17.804 Y23.495 E12.14023
G1 X18.384 Y23.356 E12.16170
G1 X18.986 Y23.309 E12.18344
G1 X22.028 Y23.309 E12.29295
G1 X22.028 Y25.909 E12.38655
G1 X18.838 Y25.909 E12.50139
G1 X18.388 Y25.998 F3000.000
G1 X17.615 Y25.667 F3000.000
G1 F1500
G1 X17.082 Y25.134 E12.54207
G1 X16.798 Y25.452 E12.56508
G1 X16.748 Y25.534 E12.57025
G1 X17.615 Y26.401 E12.63640
G1 X17.615 Y27.135 E12.67600
G1 X16.500 Y26.020 E12.76105
G1 X16.375 Y26.472 E12.78636
G1 X16.364 Y26.618 E12.79425
G1 X17.615 Y27.869 E12.88968
G1 X17.615 Y28.603 E12.92929
G1 X16.341 Y27.329 E13.02645
G1 X16.341 Y28.063 E13.06605
G1 X17.615 Y29.337 E13.16322
G1 X17.615 Y30.071 E13.20282
G1 X16.341 Y28.797 E13.29998
G1 X16.341 Y29.531 E13.33958
G1 X17.615 Y30.805 E13.43675
G1 X17.615 Y31.539 E13.47635
G1 X16.341 Y30.266 E13.57351
G1 X16.341 Y31.000 E13.61311
G1 X17.615 Y32.273 E13.71028
G1 X17.615 Y33.007 E13.74988
G1 X16.341 Y31.734 E13.84704
G1 X16.341 Y32.468 E13.88664
G1 X17.615 Y33.741 E13.98381
G1 X17.615 Y34.475 E14.02341
G1 X16.341 Y33.202 E14.12057
G1 X16.341 Y33.936 E14.16017
G1 X17.615 Y35.209 E14.25734
G1 X17.615 Y35.943 E14.29694
G1 X16.341 Y34.670 E14.39410
G1 X16.341 Y35.404 E14.43370
G1 X17.615 Y36.677 E14.53087
G1 X17.615 Y37.411 E14.57047
G1 X16.341 Y36.138 E14.66763
G1 X16.341 Y36.872 E14.70723
G1 X17.615 Y38.145 E14.80440
G1 X17.615 Y38.879 E14.84400
G1 X16.341 Y37.606 E14.94116
G1 X16.341 Y38.340 E14.98077
G1 X17.615 Y39.614 E15.07793
G1 X17.615 Y40.348 E15.11753
G1 X16.341 Y39.074 E15.21470
G1 X16.341 Y39.808 E15.25430
G1 X17.615 Y41.082 E15.35146
G1 X17.615 Y41.816 E15.39106
G1 X16.341 Y40.542 E15.48823
G1 X16.341 Y41.276 E15.52783
G1 X17.615 Y42.550 E15.62499
G1 X17.615 Y43.284 E15.66459
G1 X16.341 Y42.010 E15.76176
G1 X16.341 Y42.744 E15.80136
G1 X17.615 Y44.018 E15.89852
G1 X17.609 Y44.746 E15.93779
G1 X16.341 Y43.478 E16.03448
G1 X16.341 Y44.212 E16.07408
G1 X16.874 Y44.745 E16.11476
G1 X18.035 Y24.692 F3000.000
G1 F1500
G1 X18.310 Y24.659 E16.11783
G1 F1500
G1 X18.585 Y24.627 E16.12328
G1 X19.037 Y24.609 E16.13219
G1 X20.850 Y24.609 E16.16787
G1 E11.16787 F7200.00000
G92 E0
G1 X20.190 Y67.236 F3000.000
G1 E5.00000 F7200.00000
G1 F1240.27
G1 X20.190 Y68.982 E5.09120
G1 X19.022 Y68.982 E5.15218
G1 X18.529 Y68.943 E5.17803
G1 X18.091 Y68.838 E5.20155
G1 X17.675 Y68.665 E5.22508
G1 X17.291 Y68.430 E5.24860
G1 X16.949 Y68.138 E5.27212
G1 X16.657 Y67.795 E5.29565
G1 X16.314 Y67.236 E5.32992
G1 X20.130 Y67.236 E5.52927
G1 X20.692 Y66.733 F3000.000
G1 F1240.27
G1 X20.692 Y69.484 E5.67300
G1 X19.003 Y69.484 E5.76127
G1 X18.450 Y69.441 E5.79022
G1 X17.936 Y69.317 E5.81787
G1 X17.446 Y69.115 E5.84553
G1 X16.995 Y68.838 E5.87319
G1 X16.593 Y68.494 E5.90085
G1 X16.249 Y68.092 E5.92850
G1 X15.972 Y67.640 E5.95616
G1 X15.770 Y67.151 E5.98382
G1 X15.669 Y66.733 E6.00627
G1 X20.632 Y66.733 E6.26556
G1 X21.117 Y66.309 F3000.000
G1 F1800
G1 X21.117 Y69.909 E6.39516
G1 X18.986 Y69.909 E6.47187
G1 X18.384 Y69.861 E6.49361
G1 X17.804 Y69.722 E6.51508
G1 X17.253 Y69.494 E6.53654
G1 X16.745 Y69.183 E6.55800
G1 X16.291 Y68.795 E6.57946
G1 X15.904 Y68.342 E6.60092
G1 X15.593 Y67.834 E6.62239
G1 X15.365 Y67.283 E6.64385
G1 X15.225 Y66.703 E6.66531
G1 X15.194 Y66.309 E6.67955
G1 X21.057 Y66.309 E6.89059
G1 X20.924 Y66.660 F3000.000
G1 X19.953 Y68.005 F3000.000
G1 F1500
G1 X19.420 Y67.472 E6.93537
G1 X18.612 Y67.472 E6.98333
G1 X19.886 Y68.746 E7.09027
G1 X19.309 Y68.746 E7.12454
G1 X19.058 Y68.726 E7.13946
G1 X17.804 Y67.472 E7.24474
G1 X17.003 Y67.472 E7.29235
G1 X17.571 Y68.047 E7.34036
G1 E2.34036 F7200.00000
G92 E0
G1 Z8.350 F3000.000
G1 X67.605 Y67.236 F3000.000
G1 E5.00000 F7200.00000
G1 F1200
G1 X67.605 Y24.982 E7.20757
G1 X64.355 Y24.982 E7.37737
G1 X64.355 Y24.240 E7.41611
G1 X66.590 Y24.248 E7.53285
G1 X66.927 Y24.275 E7.55053
G1 X67.365 Y24.380 E7.57405
G1 X67.781 Y24.552 E7.59757
G1 X68.165 Y24.787 E7.62110
G1 X68.507 Y25.080 E7.64462
G1 X68.799 Y25.422 E7.66814
G1 X69.035 Y25.806 E7.69167
G1 X69.207 Y26.222 E7.71519
G1 X69.312 Y26.660 E7.73871
G1 X69.351 Y27.153 E7.76456
G1 X69.351 Y66.065 E9.79748
G1 X69.312 Y66.558 E9.82333
G1 X69.207 Y66.996 E9.84685
G1 X69.035 Y67.412 E9.87037
G1 X68.799 Y67.795 E9.89390
G1 X68.507 Y68.138 E9.91742
G1 X68.165 Y68.430 E9.94094
G1 X67.781 Y68.665 E9.96447
G1 X67.365 Y68.838 E9.98799
G1 X66.927 Y68.943 E10.01151
G1 X66.434 Y68.982 E10.03736
G1 X65.067 Y68.982 E10.10879
G1 X65.067 Y67.236 E10.19999
G1 X67.545 Y67.236 E10.32949
G1 X67.103 Y66.733 F3000.000
G1 F1200
G1 X67.103 Y25.484 E12.48454
G1 X63.853 Y25.484 E12.65434
G1 X63.853 Y23.736 E12.74570
G1 X66.610 Y23.746 E12.88977
G1 X67.006 Y23.777 E12.91050
G1 X67.521 Y23.900 E12.93816
G1 X68.010 Y24.103 E12.96582
G1 X68.461 Y24.380 E12.99347
G1 X68.863 Y24.723 E13.02113
G1 X69.207 Y25.126 E13.04879
G1 X69.484 Y25.577 E13.07645
G1 X69.686 Y26.066 E13.10410
G1 X69.810 Y26.581 E13.13176
G1 X69.854 Y27.133 E13.16070
G1 X69.854 Y66.084 E15.19569
G1 X69.810 Y66.637 E15.22463
G1 X69.686 Y67.151 E15.25229
G1 X69.484 Y67.640 E15.27995
G1 X69.207 Y68.092 E15.30760
G1 X68.863 Y68.494 E15.33526
G1 X68.461 Y68.838 E15.36292
G1 X68.010 Y69.115 E15.39058
G1 X67.521 Y69.317 E15.41823
G1 X67.006 Y69.441 E15.44589
G1 X66.453 Y69.484 E15.47483
G1 X64.564 Y69.484 E15.57356
G1 X64.564 Y66.733 E15.71728
G1 X67.043 Y66.733 E15.84678
G1 X66.678 Y66.309 F3000.000
G1 F900
G1 X66.678 Y25.909 E17.30113
G1 X63.428 Y25.909 E17.41813
G1 X63.428 Y23.310 E17.51170
G1 X66.628 Y23.321 E17.62688
G1 X67.072 Y23.356 E17.64294
G1 X67.652 Y23.495 E17.66440
G1 X68.203 Y23.724 E17.68587
G1 X68.711 Y24.035 E17.70733
G1 X69.165 Y24.422 E17.72879
G1 X69.552 Y24.876 E17.75025
G1 X69.863 Y25.384 E17.77172
G1 X70.091 Y25.935 E17.79318
G1 X70.231 Y26.514 E17.81464
G1 X70.278 Y27.117 E17.83639
G1 X70.278 Y66.101 E19.23978
G1 X70.231 Y66.703 E19.26152
G1 X70.091 Y67.283 E19.28298
G1 X69.863 Y67.834 E19.30445
G1 X69.552 Y68.342 E19.32591
G1 X69.165 Y68.795 E19.34737
G1 X68.711 Y69.183 E19.36883
G1 X68.203 Y69.494 E19.39029
G1 X67.652 Y69.722 E19.41176
G1 X67.072 Y69.861 E19.43322
G1 X66.470 Y69.909 E19.45497
G1 X64.139 Y69.909 E19.53887
G1 X64.139 Y66.309 E19.66847
G1 X66.618 Y66.309 E19.75770
G1 X67.058 Y66.183 F3000.000
G1 X65.303 Y68.212 F3000.000
G1 F1500
G1 X65.836 Y68.746 E19.79721
G1 X66.549 Y68.746 E19.83456
G1 X65.303 Y67.499 E19.92690
G1 X65.303 Y67.472 E19.92833
G1 X65.988 Y67.472 E19.96425
G1 X67.206 Y68.690 E20.05446
G1 X67.475 Y68.625 E20.06900
G1 X67.743 Y68.514 E20.08417
G1 X66.701 Y67.472 E20.16137
G1 X67.414 Y67.472 E20.19872
G1 X68.186 Y68.245 E20.25597
G1 X68.417 Y68.048 E20.27185
G1 X68.549 Y67.894 E20.28246
G1 X67.841 Y67.187 E20.33486
G1 X67.841 Y66.474 E20.37221
